!!!COM: Fanny (Mendelssohn) Hensel
!!!CNT: Deutsch
!!!TXO: Deutsch
!!!OTL: "Ach, die Augen sin des wieder"
!!!LYR: Heine, Heinrich
!!!OPR: 
!!!OPS: Op. 
!!!ONM: No. 
!!!ENC: Emily Thomas
!!!YOR: Hensel: Ausgewa2hlte Lieder fu2r Singstimme und Klavier
!!!YOR: Breitkopf & Hartel, 1994 vol. 2
!!!ODT: 1837/
!!NB: Vocal melody and text encoded.
**kern	**silbe
=1-	=1
*clefG2	*
*k[f#c#g#]	*
*M4/4	*
*MM[Allegro moderato]	*
{4ee	{Ach!
8r	.
8dd#	die
8ee	Au-
8ddn	-gen
8cc#	sind
8b	es
=2	=2
2b	wie-
4a}	-der,}
{8a	{die
8a	mich
=3	=3
4.b	einst
8b	so
4b	freund-
8cc#	-lich
8dd	|
=4	=4
2dd	gru2ss-
4cc#}	-ten,}
4r	.
=5	=5
{4.ee	{und
8dd#	es
8ee	sind
8ddn	die
8cc#	Lip-
8b	-pen
=6	=6
2b	wie-
4a}	-der,}
{8a	{die
8a	mir's
=7	=7
4.ff#	Le-
8ee	-ben
8ee	einst
8dd#	|
8cc#	ver-
8b	|
=8	=8
4a	-su2ss-
4g#}	-ten.}
2r	.
=9	=9
{4ee	{Ach!
8r	.
8dd#	die
8ee	Au-
8b	-gen
8a	sind
8g#	es
=10	=10
4g#	wie-
4f#}	-der,}
2r	.
=11	=11
{4.ee-	{die
8dd#	mich
8ee	einst
8b	so
8a	lieb-
8g#	-lich
=12	=12
4b	gru2ss-
4a}	-ten,}
2r	.
=13	=13
{4.ff#	{und
8ee#	es
8ff#	sind
8dd#	die
8cc#	Lip-
8b	-pen
=14	=14
4a	wie-
4g#}	-der,}
{4ddn	{die
4b#	mir's
=15	=15
4cc#	Le-
4g#	-ben
4b	einst
8a	|
8f#	ver-
=16	=16
1e	-suss-
=17	=17
2.ee	|
8dd	|
8b	|
=18	=18
4a}	-ten!}
4r	.
2r	.
==	==
*-	*-
